X:1
T:Title
L:1/8
M:2/4
K:Ab
V:1 treble nm="Grand Piano"
V:1
 z2[Q:1/4=100] C2 | F2 G2 | A4 | G3 F/G/ | A4- | A2 A2 | G2 F2 | E4 | D3 E/D/ | C4- | C2 C2 | %11
 F2 G2 | A4 | G3 F/G/ | A4- | A2 A2 | G2 F2 | E4 | D3 E/D/ | C4- | C2 F2 | A2 B2 | c4 | B3 A/B/ | %24
 c4- | c2 e2 | d2 c2 | d3 c | B4- | B2 d2 | c2 B2 | c3 B | A4- | A2 c2 | B2 A2 | B3 A | G4 | c4- | %38
 c2 C2 | G3 F/=E/ | F4- | F4- | F2 z2 |] %43

